X: 8077
T: Conor Tully's
R: hornpipe
M: 4/4
K: Dmajor
|:G2 FG EFGE|ADFA d3 e|fdce dBAF|GECE A,4|
G2 FG EFGE|ADFA d3 e|fdce dBAF|GECE D4:|
|:Ad (3dcd fgef|dcAB =c2 AG|EDCD EFGE|Ad (3dcd =cAGE|
Ad (3dcd fgef|dcAB =c2 (3efg|fage fd=cA|GECE D4:|

